X:4234
T:Miss Farquharson's Reel
O:england
M:2/2
L:1/8
S:Armitt MS
N:Seems to bear more than a passing resemblance to "My love is but a
N:lassie yet
K:D Major
(B/2c/2)|dDFD dDD B/2c/2|dDFD BEEB/2c/2|dDFD dgfe|(d/2c/2B/2A/2) Bc dDD2
||(f/2g/2)|afge fdd(f/2g/2)|afge eE E(f/2g/2)|afge fdec|(d/2c/2B/2A/2 B)
c dDD2:||


